img/Icone date-1.svg

<svg height="17.667" viewBox="0 0 16 17.667" width="16" xmlns="http://www.w3.org/2000/svg"><g fill="none" stroke="#663014" stroke-linecap="round" stroke-linejoin="round" transform="translate(-2 -1.167)"><path d="m4.167 3.333h11.666a1.667 1.667 0 0 1 1.667 1.667v11.667a1.667 1.667 0 0 1 -1.667 1.667h-11.666a1.667 1.667 0 0 1 -1.667-1.667v-11.667a1.667 1.667 0 0 1 1.667-1.667z"/><path d="m13.333 1.667v3.333"/><path d="m6.667 1.667v3.333"/><path d="m2.5 8.333h15"/></g></svg>

<svg xmlns="http://www.w3.org/2000/svg" width="16" height="17.667" viewBox="0 0 16 17.667"><defs><style>.a{fill:none;stroke:#663014;stroke-linecap:round;stroke-linejoin:round;}</style></defs><g transform="translate(0.5 0.5)"><path class="a" d="M4.167,3.333H15.833A1.667,1.667,0,0,1,17.5,5V16.667a1.667,1.667,0,0,1-1.667,1.667H4.167A1.667,1.667,0,0,1,2.5,16.667V5A1.667,1.667,0,0,1,4.167,3.333Z" transform="translate(-2.5 -1.667)"/><path class="a" d="M13.333,1.667V5" transform="translate(-2.5 -1.667)"/><path class="a" d="M6.667,1.667V5" transform="translate(-2.5 -1.667)"/><path class="a" d="M2.5,8.333h15" transform="translate(-2.5 -1.667)"/></g></svg>
